src/topics/icons/sqldep.svg

<svg height="140" preserveAspectRatio="xMidYMid" viewBox="0 0 512 140" width="512" xmlns="http://www.w3.org/2000/svg"><path d="m71.887605 60.1582711c-5.8995086-5.088065-14.6791196-9.3751341-26.3423158-12.8612073-7.5711521-2.7303511-12.735834-5.0079654-15.483598-6.8189125-2.7512467-1.8109472-4.12687-4.2313477-4.12687-7.2472712 0-3.1169186 1.3651756-5.7288616 4.0920441-7.8497594 2.7268684-2.1174151 6.4880664-3.1796052 11.2905589-3.1796052 4.8895573 0 8.720407 1.2885585 11.4960318 3.8482627 2.7721421 2.5736345 4.1616958 6.3626931 4.1616958 10.4617023h23.1383324l.1427862-.4283586c.2333336-9.2323479-3.2806004-17.245789-10.541802-23.1069891-7.2681667-5.87164785-16.5945445-9.26369115-27.9721682-9.26369115-11.4751362 0-20.9408176 3.12388382-28.3935616 8.45224755-7.46319182 5.3248811-11.18956383 12.293545-11.18956383 20.9199221 0 8.856228 3.12736642 15.6368321 9.38558183 20.3209165 6.2512502 4.6910496 15.8736482 9.086079 28.8497811 13.1850883 6.2094591 2.2149276 10.5139412 4.3079646 12.9134461 6.2895587 2.3960224 1.9781115 3.5940336 4.781597 3.5940336 8.4104564 0 3.2039835-1.2154241 5.7950309-3.6323421 7.7696598-2.4238831 1.9781115-6.1014988 2.977615-11.0363298 2.977615-6.4880664 0-11.3358326-1.2781107-14.5293682-3.8238845-3.2005008-2.5492564-4.79901-5.2970204-4.79901-11.2348375h-22.74828216l-.14626881.4179109c-.23333357 11.0328472 3.44428217 17.9840982 11.95921637 23.8487811 8.5149341 5.871648 18.6005167 8.807472 30.2602302 8.807472 11.6109573 0 20.9373351-2.559705 27.9686856-7.67563 7.0313506-5.115926 10.5452846-12.1925502 10.5452846-21.2403207-.0034826-8.8945366-2.9497543-15.8945438-8.8562281-20.9791262zm158.645935-52.78214408h-21.849774v102.64587698h69.401067v-18.3358396h-47.551293zm-126.689683 18.39504388h73.691618c4.990553 0 7.198515-2.6746296 7.198515-7.6756298v-.9124388c0-9.09304419-8.556725-12.65573444-13.540312-12.65573444 0 0-13.272153-4.52736786-30.197544-4.52736786-16.928873 0-30.806997 4.52736786-30.806997 4.52736786-4.927866 0-13.3069788 4.39154683-13.5054865 13.26867044.1776122 4.6631889 2.3855746 7.9751326 7.1602065 7.9751326zm-7.198515-8.5880686v.9159214c0-.1079603.0313434-.1950251.0348259-.3029854-.0104477-.2089555-.0348259-.4004979-.0348259-.612936zm5.519906 52.510502h77.090627c4.983587 0 7.309958-4.0502529 7.309958-9.0477705v-11.2278723c0-4.994035-2.322888-9.0442879-7.309958-9.0442879h-77.090627c-4.9870696 0-7.1985147 4.0467703-7.1985147 9.0442879v11.2278723c-.0034826 4.9975176 2.2114451 9.0477705 7.1985147 9.0477705zm82.67322 27.0423165c.299503-1.1318419.508458-2.3507487.508458-3.7403023v-1.149255c0-4.9905524-4.039805-7.4388136-9.026875-7.4388136h-70.644351c-4.79901 0-8.6820989 3.3363218-8.9746365 8.0343366.306468 8.5427945 6.7875695 12.9830985 11.6562305 12.9830985 0 0 15.709967 4.509954 32.63884 4.509954 11.558719 0 22.400023-2.100002 28.118437-3.433834.055722.062687.073135.139304.128856.198508l16.510962 16.545788c1.758709 1.758708 4.621398 1.758708 6.383589 0l6.387071-6.397519c1.762191-1.769156 1.762191-4.638811 0-6.397519zm-88.193126-3.7403023c0-.1950251.0417911-.3656721.0626867-.5502494-.0069652-.212438-.0626867-.3796023-.0626867-.5990056zm258.355988-45.0473103c-2.556221-4.61095-6.216424-8.2432921-10.517423-10.8970261-4.297517-2.6572167-9.399513-3.9806012-15.302504-3.9806012-8.92588 0-15.898026 3.5243818-20.916439 10.5835931-5.021896 7.052246-7.532844 16.5632011-7.532844 28.5293827v1.4592055c0 11.6423005 2.497018 20.860718 7.494535 27.6587348 4.994035 6.798017 11.931356 10.200508 20.808479 10.200508 5.857718 0 10.984091-1.187563 15.379121-3.555725 4.388064-2.382092 8.06568-5.59304 10.583593-9.646776l.135821 11.732848h3.402491v-106.42797066h-3.538312v44.34382686zm0 43.3687016c-1.957216 4.9870698-5.331846 8.9641882-9.678119 11.9452862-4.346273 2.981097-9.796528 4.468164-16.350763 4.468164-7.996028 0-14.045288-3.071645-18.161711-9.2184179-4.112939-6.14329-6.167668-14.4353383-6.167668-24.8656974v-1.4592054c0-10.4791153 2.079107-18.9905669 6.230355-25.5308722 4.161696-6.5437878 10.242299-9.8139405 18.234845-9.8139405 7.208962 0 12.829864 1.8248775 16.873152 5.4850803 4.039805 3.6567202 7.198514 8.1806055 9.016427 13.5855862v35.4040167zm52.890105-58.2463289c-8.877124 0-16.336833 3.5522425-22.375645 10.6497623-6.042295 7.1044849-9.065184 16.0791211-9.065184 26.927391v4.4646812c0 10.3363291 3.120401 18.9905669 9.371652 25.9487826 6.258215 6.958217 13.679616 10.440807 22.27465 10.440807 5.763687 0 10.775135-.853234 15.023896-2.545774 4.259208-1.696021 7.870655-4.206969 10.841304-7.508465l-2.026867-2.9393065c-2.685078 3.0751275-5.930852 5.3840855-9.719911 6.9199075-3.789059 1.528857-8.494038 2.29851-14.11494 2.29851-7.898515 0-14.529368-3.148262-19.875145-9.4621989-5.338811-6.3139368-8.009958-14.0278752-8.009958-23.1522627v-5.37712h56.539859v-5.7950308c0-9.4064774-2.685077-16.9010125-8.055232-22.4905705-5.359707-5.5825929-12.297028-8.3791132-20.808479-8.3791132zm25.105996 32.8965514h-52.015974l-.208956-.4179108c.651245-8.1980185 3.458213-15.0273788 8.438317-20.4985287 4.97314-5.4781151 11.196529-8.2049836 18.684099-8.2049836 7.431849 0 13.481109 2.5492564 18.126885 7.6442865 4.645776 5.0985127 6.972146 11.4960318 6.972146 19.1786268v2.2985098zm71.420969-22.3129583c-5.035826-7.0557287-11.99056-10.5835931-20.874648-10.5835931-5.951748 0-11.085086 1.3233845-15.406981 3.9806012-4.325378 2.653734-8.198019 6.3104542-10.708967 10.9631954l.038309-14.922901h-3.496521v106.2329455h3.531347v-41.0214354c2.469157 4.0537354 6.348762 7.2646844 10.747275 9.6467764 4.388064 2.371644 9.535333 3.559207 15.448772 3.559207 8.821402 0 15.751757-3.405973 20.773653-10.200508 5.021896-6.794534 7.529361-16.0164341 7.529361-27.6552521v-1.4661706c-.01393-11.9731467-2.535326-21.4841018-7.5816-28.5328653zm3.73682 29.9920707c0 10.4303591-2.082589 18.7224074-6.244285 24.8656974-4.154731 6.1502549-10.210956 9.2184179-18.158228 9.2184179-6.602992 0-12.088072-1.490549-16.455241-4.468164-4.370651-2.977615-7.940306-6.9860771-9.80001-12.014938v-35.3343649c1.7204-5.359707 5.060204-9.8731445 9.10001-13.5507603 4.039805-3.6845809 9.712945-5.5164236 17.008972-5.5164236 7.947272 0 14.024393 3.2701526 18.231362 9.8069753 4.203487 6.5437879 6.313937 15.0517569 6.313937 25.5308722z" fill="#00cbdc"/></svg>

<?xml version="1.0" encoding="UTF-8" standalone="no"?>
<svg width="512px" height="140px" viewBox="0 0 512 140" version="1.1" xmlns="http://www.w3.org/2000/svg" xmlns:xlink="http://www.w3.org/1999/xlink" preserveAspectRatio="xMidYMid">
    <g>
        <path d="M71.887605,60.1582711 C65.9880964,55.0702061 57.2084854,50.783137 45.5452892,47.2970638 C37.9741371,44.5667127 32.8094552,42.2890984 30.0616912,40.4781513 C27.3104445,38.6672041 25.9348212,36.2468036 25.9348212,33.2308801 C25.9348212,30.1139615 27.2999968,27.5020185 30.0268653,25.3811207 C32.7537337,23.2637056 36.5149317,22.2015155 41.3174242,22.2015155 C46.2069815,22.2015155 50.0378312,23.490074 52.813456,26.0497782 C55.5855981,28.6234127 56.9751518,32.4124713 56.9751518,36.5114805 L80.1134842,36.5114805 L80.2562704,36.0831219 C80.489604,26.850774 76.97567,18.8373329 69.7144684,12.9761328 C62.4463017,7.10448495 53.1199239,3.71244165 41.7423002,3.71244165 C30.267164,3.71244165 20.8014826,6.83632547 13.3487386,12.1646892 C5.88554678,17.4895703 2.15917477,24.4582342 2.15917477,33.0846113 C2.15917477,41.9408393 5.28654119,48.7214434 11.5447566,53.4055278 C17.7960068,58.0965774 27.4184048,62.4916068 40.3945377,66.5906161 C46.6039968,68.8055437 50.9084789,70.8985807 53.3079838,72.8801748 C55.7040062,74.8582863 56.9020174,77.6617718 56.9020174,81.2906312 C56.9020174,84.4946147 55.6865933,87.0856621 53.2696753,89.060291 C50.8457922,91.0384025 47.1681765,92.037906 42.2333455,92.037906 C35.7452791,92.037906 30.8975129,90.7597953 27.7039773,88.2140215 C24.5034765,85.6647651 22.9049673,82.9170011 22.9049673,76.979184 L0.15668514,76.979184 L0.0104163326,77.3970949 C-0.222917242,88.4299421 3.4546985,95.3811931 11.9696327,101.245876 C20.4845668,107.117524 30.5701494,110.053348 42.2298629,110.053348 C53.8408202,110.053348 63.167198,107.493643 70.1985485,102.377718 C77.2298991,97.261792 80.7438331,90.1851678 80.7438331,81.1373973 C80.7403505,72.2428607 77.7940788,65.2428535 71.887605,60.1582711 L71.887605,60.1582711 Z M230.53354,7.37612702 L208.683766,7.37612702 L208.683766,110.022004 L278.084833,110.022004 L278.084833,91.6861644 L230.53354,91.6861644 L230.53354,7.37612702 L230.53354,7.37612702 Z M103.843857,25.7711709 L177.535475,25.7711709 C182.526028,25.7711709 184.73399,23.0965413 184.73399,18.0955411 L184.73399,17.1831023 C184.73399,8.09005811 176.177265,4.52736786 171.193678,4.52736786 C171.193678,4.52736786 157.921525,0 140.996134,0 C124.067261,0 110.189137,4.52736786 110.189137,4.52736786 C105.261271,4.52736786 96.8821582,8.91891469 96.6836505,17.7960383 C96.8612627,22.4592272 99.0692251,25.7711709 103.843857,25.7711709 L103.843857,25.7711709 Z M96.645342,17.1831023 L96.645342,18.0990237 C96.645342,17.9910634 96.6766854,17.9039986 96.6801679,17.7960383 C96.6697202,17.5870828 96.645342,17.3955404 96.645342,17.1831023 L96.645342,17.1831023 Z M102.165248,69.6936043 L179.255875,69.6936043 C184.239462,69.6936043 186.565833,65.6433514 186.565833,60.6458338 L186.565833,49.4179615 C186.565833,44.4239265 184.242945,40.3736736 179.255875,40.3736736 L102.165248,40.3736736 C97.1781784,40.3736736 94.9667333,44.4204439 94.9667333,49.4179615 L94.9667333,60.6458338 C94.9632507,65.6433514 97.1781784,69.6936043 102.165248,69.6936043 L102.165248,69.6936043 Z M184.838468,96.7359208 C185.137971,95.6040789 185.346926,94.3851721 185.346926,92.9956185 L185.346926,91.8463635 C185.346926,86.8558111 181.307121,84.4075499 176.320051,84.4075499 L105.6757,84.4075499 C100.87669,84.4075499 96.9936011,87.7438717 96.7010635,92.4418865 C97.0075315,100.984681 103.488633,105.424985 108.357294,105.424985 C108.357294,105.424985 124.067261,109.934939 140.996134,109.934939 C152.554853,109.934939 163.396157,107.834937 169.114571,106.501105 C169.170293,106.563792 169.187706,106.640409 169.243427,106.699613 L185.754389,123.245401 C187.513098,125.004109 190.375787,125.004109 192.137978,123.245401 L198.525049,116.847882 C200.28724,115.078726 200.28724,112.209071 198.525049,110.450363 L184.838468,96.7359208 L184.838468,96.7359208 Z M96.645342,92.9956185 C96.645342,92.8005934 96.6871331,92.6299464 96.7080287,92.4453691 C96.7010635,92.2329311 96.645342,92.0657668 96.645342,91.8463635 L96.645342,92.9956185 L96.645342,92.9956185 Z M355.00133,47.9483082 C352.445109,43.3373582 348.784906,39.7050161 344.483907,37.0512821 C340.18639,34.3940654 335.084394,33.0706809 329.181403,33.0706809 C320.255523,33.0706809 313.283377,36.5950627 308.264964,43.654274 C303.243068,50.70652 300.73212,60.2174751 300.73212,72.1836567 L300.73212,73.6428622 C300.73212,85.2851627 303.229138,94.5035802 308.226655,101.301597 C313.22069,108.099614 320.158011,111.502105 329.035134,111.502105 C334.892852,111.502105 340.019225,110.314542 344.414255,107.94638 C348.802319,105.564288 352.479935,102.35334 354.997848,98.299604 L355.133669,110.032452 L358.53616,110.032452 L358.53616,3.60448134 L354.997848,3.60448134 L354.997848,47.9483082 L355.00133,47.9483082 Z M355.00133,91.3170098 C353.044114,96.3040796 349.669484,100.281198 345.323211,103.262296 C340.976938,106.243393 335.526683,107.73046 328.972448,107.73046 C320.97642,107.73046 314.92716,104.658815 310.810737,98.5120421 C306.697798,92.3687521 304.643069,84.0767038 304.643069,73.6463447 L304.643069,72.1871393 C304.643069,61.708024 306.722176,53.1965724 310.873424,46.6562671 C315.03512,40.1124793 321.115723,36.8423266 329.108269,36.8423266 C336.317231,36.8423266 341.938133,38.6672041 345.981421,42.3274069 C350.021226,45.9841271 353.179935,50.5080124 354.997848,55.9129931 L354.997848,91.3170098 L355.00133,91.3170098 L355.00133,91.3170098 Z M407.891435,33.0706809 C399.014311,33.0706809 391.554602,36.6229234 385.51579,43.7204432 C379.473495,50.8249281 376.450606,59.7995643 376.450606,70.6478342 L376.450606,75.1125154 C376.450606,85.4488445 379.571007,94.1030823 385.822258,101.061298 C392.080473,108.019515 399.501874,111.502105 408.096908,111.502105 C413.860595,111.502105 418.872043,110.648871 423.120804,108.956331 C427.380012,107.26031 430.991459,104.749362 433.962108,101.447866 L431.935241,98.5085595 C429.250163,101.583687 426.004389,103.892645 422.21533,105.428467 C418.426271,106.957324 413.721292,107.726977 408.10039,107.726977 C400.201875,107.726977 393.571022,104.578715 388.225245,98.2647781 C382.886434,91.9508413 380.215287,84.2369029 380.215287,75.1125154 L380.215287,69.7353954 L436.755146,69.7353954 L436.755146,63.9403646 C436.755146,54.5338872 434.070069,47.0393521 428.699914,41.4497941 C423.340207,35.8672012 416.402886,33.0706809 407.891435,33.0706809 L407.891435,33.0706809 Z M432.997431,65.9672323 L380.981457,65.9672323 L380.772501,65.5493215 C381.423746,57.351303 384.230714,50.5219427 389.210818,45.0507928 C394.183958,39.5726777 400.407347,36.8458092 407.894917,36.8458092 C415.326766,36.8458092 421.376026,39.3950656 426.021802,44.4900957 C430.667578,49.5886084 432.993948,55.9861275 432.993948,63.6687225 L432.993948,65.9672323 L432.997431,65.9672323 Z M504.4184,43.654274 C499.382574,36.5985453 492.42784,33.0706809 483.543752,33.0706809 C477.592004,33.0706809 472.458666,34.3940654 468.136771,37.0512821 C463.811393,39.7050161 459.938752,43.3617363 457.427804,48.0144775 L457.466113,33.0915765 L453.969592,33.0915765 L453.969592,139.324522 L457.500939,139.324522 L457.500939,98.3030866 C459.970096,102.356822 463.849701,105.567771 468.248214,107.949863 C472.636278,110.321507 477.783547,111.50907 483.696986,111.50907 C492.518388,111.50907 499.448743,108.103097 504.470639,101.308562 C509.492535,94.514028 512,85.2921279 512,73.6533099 L512,72.1871393 C511.98607,60.2139926 509.464674,50.7030375 504.4184,43.654274 L504.4184,43.654274 Z M508.15522,73.6463447 C508.15522,84.0767038 506.072631,92.3687521 501.910935,98.5120421 C497.756204,104.662297 491.699979,107.73046 483.752707,107.73046 C477.149715,107.73046 471.664635,106.239911 467.297466,103.262296 C462.926815,100.284681 459.35716,96.2762189 457.497456,91.247358 L457.497456,55.9129931 C459.217856,50.5532861 462.55766,46.0398486 466.597466,42.3622328 C470.637271,38.6776519 476.310411,36.8458092 483.606438,36.8458092 C491.55371,36.8458092 497.630831,40.1159618 501.8378,46.6527845 C506.041287,53.1965724 508.151737,61.7045414 508.151737,72.1836567 L508.15522,73.6463447 L508.15522,73.6463447 L508.15522,73.6463447 Z" fill="#00CBDC"></path>
    </g>
</svg>
